-----BEGIN PGP PUBLIC KEY BLOCK-----

mQINBGp64X0BEACtmGaJeX42K+esvc0PZdPlXXko1mpUA31abpXcd5SsOQemxlvp
T4wJny2HX7DtHVhE0GulXLKlX+toZ/Eg0qLrr1+JdhgglzEeTPqE8tvftUpB6i+5
dtCqBHnBWjkBsP5z7D17RGXF29Nwjyuj+AElefUV75uU4TfZHAPLWkNLRUyUu/iv
OrhYKzE+rhQDdAH2bFVl/SPOBi+JXtJOF8aLmI9DgY2cssNOydG+THbokM+TN3Yy
q9VWsT2hrAtVoWXujDgg9wsOOx6zN26EBzagXhqSGz6ZvOBs/fVQJXyISEc6us3z
8mnfTPD0sZ4RNHKgvEiCIs29n0rFM3e/n0eP8wSx+zqO/z/CuvOAQSqkNpHMnt/m
mHGskTJwsUkYV1na4MtrLgQY3km7MCPVhD9cDPPWG6lU/pLIgOc+jWaO043c7dAr
rt05iSKTvMkqD4a0MzjtwdYosXPmwDnYL7bXBIBhZUgVbxUnWzQXvs22UXP2AHfg
u04pCs4YOqGnYyAcgZf9Dq9YoamgkKDRPYrXf6b8Cz0c7dDiKvKilrqh6VTJ4Koc
EJph8EfI+e8sTYyAx00fVB11chJuAS75m8o3X48rkXHcSC70NDJKbHNYXtRwe/8O
yKj262rzKr2RtEkntVkfiQtl6th1hlsr3nWsFQCO1Z62KE/X3t2Z4BwVOQARAQAB
tDNGcm9nZmlzaCBHdW1wIFBhY2thZ2UgUmVwb3NpdG9yeSA8aW5mb0Bmcm9nZmlz
aC5pbz6JAnMEEwEIAF0WIQSb/7Q/F5wfUjU1S/GcGXpyx4gBygUCanrhfRsUgAAA
AAAEAA5tYW51MiwyLjUrMS4xMiwwLDMCGwEFCQlmAYAFCwkIBwICIgIGFQoJCAsC
BBYCAwECHgcCF4AACgkQnBl6cseIAcq8cA/+KYyU75PednWmCNRG6pv9dWscsFof
yAXtP6l861AxqqfyeK70w+vYswNJjosoKxD7k15TroH64+aRj0GTqfIdOCK+M7Mb
7+OFPr/ZJPfNx6mzkEUB12+XupuAtH8B4PQiAqqsVyX6diHXyeOOWgGoa8ui/pQs
iEgBjOByfW1P3C53DsWxAbS43vywU0Ws0a43VwrJpf+nuSEXUzQ1WKm7Rw/y6Bn/
KpJcpzFKGTo14flTHzGbRjRfk3N1fmhwkwa33z9ZnFxxcIEk3BJJi8NNenm9Zfld
hkeSyaHf+CcgR42aTsNBSHYYD1uLqL1VtXG8yi9cOAsTCiJzDNOFy6KJl/w6pzzs
0EoPDWSjpvqXinvMcSMkX4MJSUOS3dr6v9penbNQO8MIUNj0apxmduO5fuNf6Kae
n5S88C5Rq3tso0HIdhBbKVAOFQkCYf/o4S/8sm1GGMvSdr/M6Wij/AM8RXhQbMjA
qDO1/X/02U5czkIgmNZmBPFmUFV8dyKHHFiBWLNbk9ua6uGHmHS5Z8/GXEgEwNas
bOx/pM6XIhfZksNG489rDrm0bT1raL0yI+qh1WnoDtRVGmEzO4fLWA4hjLzGW0Ia
Pfd5olqmwiyJZ0a9eEwXundLHSCRI7rYavEnkl3PWoYTpT489CWBaM4MS3o5dN0c
2AxIqlTTdgYOaAi5AY0EanrhgQEMAKngeGhu+ZIqCQ/SNXOslG0eJuDQNow2n7rQ
r6chhBbKvLU9xygmTYSffa/TfJBD68b3B9RIb/iFNOoFwhGvZK2WheE9CY3YkqRe
SBPI8eZZOrhbFuPxovOObAGSSPF2HUQs8SkLMNeaRvoBY1Y3667iVN4cR0oJcErw
kH+nJEgCERN00tP7MUyYxYY9P3ixaYuqaLOizOUWPsZlj0L3No8Z3s8KLpau/HDR
Ue207kSS9VAmUh/TJMElS8Vl+O5JF1US6SkTiUNwJW0QnqZYFU8nsiq/6V1cQb1e
tNyU7Jn0hTipK/8oID8Gqtkn1qQiJ4bTerV73GEFRzR5/7raIKHLYUI/K/awSFtW
VYX9Rn2PKtmDR/96wq9JioQwaFyq7CxAnFsb/BTTV8Zngi+UTWL2VLM7ie3ieRiO
TMKmIBd+g+dV8XPVbQ+gRBHfjBo1kS1Z4BmrJOjBcUQryukuIV+c++MTxI2uQlu+
zLlIZ4Hq1R+Tq1ZWbyVEtn+F5V6N8wARAQABiQQOBBgBCABCFiEEm/+0PxecH1I1
NUvxnBl6cseIAcoFAmp64YEbFIAAAAAABAAObWFudTIsMi41KzEuMTIsMCwzAhsC
BQkDwmcAAcAJEJwZenLHiAHKwPQgBBkBCAAdFiEEvEkBxPsb+QBIZcYX+/0IhQz3
EcIFAmp64YEACgkQ+/0IhQz3EcKuwQv/afz8JFw7t2cE/lqRZiqFcFebMJZbOaD/
mCYQzj3fgQEy5fSWjK5CoPrCd/Ua18xCMw+OI1e0hbgnt4oji3kalO8Z8Lr3aDgS
4t/OxXx9DwSo8eDcqeun93aSuFw2tuXnu44hOk+8qvG+VigcZNuy6+mo9tilLC50
RIYtDAT4qkJNAa3gM+FDDzYXV/Gx8UKzWD+buzujKgZWoERaXccGsJC1RK0nfsRP
VrCdFCi+3TyOJlhGm7SHyJ6jkbqf3uECzypoNnymacj9VkwFDeMiav+Yx3H/RhAT
tALp7uIiE22muPg1PkET3u6e66so9PPi6rf8+ekZ2b2k2b+cnT9LOtLMuYn4KBeD
NenINev8OFkyAFjJzkU0tvX2K7LTunO75J3NyRKEsIdFlS5hM5iu1f7EXAv5cu48
zgkJv73GxDBCLxckDtCe7PKCrQRBnyuvcenFUAyK6iDP3+ML0At492kCLi9+pEoS
VRvSBNjhNrP3zKYJmxSdOlU+zxIOYDtfZhwQAKVWqvUJi0gdABE/xGm+3V4hk+j7
JknnBZFCg3YqmCbnKyfspBFF2UVC0O0roJiiv6F2QC0rP7TGKLGR4Nxt5sfyVRy4
5r1K3h5Zf5XVa4qUagqqd4e8PdP5jroSh7+bgvoPLNKQiMJOR2JeKX2vwlFzgrBI
BKDSU0CBt4o53W31Qg7GJ+6tQ74A3FRcIpv7k86YPVaIbYVNjBCDk2+76X9R6yVO
i7WcEAl/RvTVwXwSA6DgjXHeGiLmL87/fwHyb+uu3jbwlltDPP5GN8yV+2yoCzZg
tuG8dbdIe+cH/enyJo1x3gjXkcKnrsMU6SIsK1Mkys5CXwNUhXwhitB2U/5NvBvl
Zcr0Y0xnIno3yYPrlaVBhvfeSqROLnttG3iKKesbTTr4FfzbYvXvQzeiFPy1F3bE
KwRu7hznB8P5ZzDoU+bY0RanRD3ugYndONptzRTbruS7SFjPt7CMDoHJ+dLjLNLH
Y9/ZXQi4Sx7K1hvC98DUyblWzs19ap/2s1oGtn00zU6AfIUfbYgRseVg090Vo46E
OnHM9oNM6vol8XiR58fmyy6gHWzdkKgAFkhEfLNSfvuXYFa27kZhc7n6WKgqvJmo
0XsYB8ia/ITKvkVI2+ReVKHk7GQJ9+OwmHdcyf6RCCwHGZJx7wHlNcRfDTZFEzEH
kCFZ+XBwYd9FpT/C
=x3Ft
-----END PGP PUBLIC KEY BLOCK-----
